svg/rounded_rectangle.svg

<svg xmlns="http://www.w3.org/2000/svg" viewBox="0 0 32 32" enable-background="new 0 0 32 32"><path d="M 8 6 C 5.2545455 6 3 8.2545455 3 11 L 3 21 C 3 23.745455 5.2545455 26 8 26 L 24 26 C 26.745455 26 29 23.745455 29 21 L 29 11 C 29 8.2545455 26.745455 6 24 6 L 8 6 z M 8 8 L 24 8 C 25.654545 8 27 9.3454545 27 11 L 27 21 C 27 22.654545 25.654545 24 24 24 L 8 24 C 6.3454545 24 5 22.654545 5 21 L 5 11 C 5 9.3454545 6.3454545 8 8 8 z" color="#000" overflow="visible" enable-background="accumulate"/></svg>

<svg xmlns="http://www.w3.org/2000/svg" viewBox="0 0 32 32"><path d="M8 6c-2.745 0-5 2.255-5 5v10c0 2.745 2.255 5 5 5h16c2.745 0 5-2.255 5-5V11c0-2.745-2.255-5-5-5H8zm0 2h16c1.655 0 3 1.345 3 3v10c0 1.655-1.345 3-3 3H8c-1.655 0-3-1.345-3-3V11c0-1.655 1.345-3 3-3z"/></svg>
